X: 36870
T: Shirley's
R: reel
M: 4/4
K: Amajor
|:ed|c2 Bc BA A2|Acea fe e2|faaf ecce|afeA cBBe|
c2 Bc BA A2|Acea fe e2|faaf eccA|BEGB A2:|
|:cd|e2 ef eAce|dfaf eccd|e2 ef eccB|Adcd B2 cd|
e2 ef eAce|dfaf ecce|d2 fd ceec|BEGB A2:|

